<?xml version="1.0" encoding="UTF-8"?>
<map version="1.10" tiledversion="1.12.1" orientation="orthogonal" renderorder="right-down" width="30" height="30" tilewidth="64" tileheight="64" infinite="0" nextlayerid="6" nextobjectid="8">
 <editorsettings>
  <export target="testMap.lua" format="lua"/>
 </editorsettings>
 <tileset firstgid="1" name="test-tiles" tilewidth="64" tileheight="64" tilecount="54" columns="9">
  <image source="tileset.png" width="576" height="384"/>
  <tile id="53">
   <objectgroup draworder="index" id="2">
    <object id="10" x="7.54886" y="4.19381" width="48.9278" height="56.1971"/>
   </objectgroup>
  </tile>
 </tileset>
 <layer id="1" name="Base" width="30" height="30">
  <data encoding="csv">
11,11,11,11,11,11,11,11,11,11,11,11,11,11,11,11,11,11,11,11,11,11,11,11,11,11,11,11,11,11,
11,11,11,11,11,11,11,11,11,11,11,11,11,11,11,11,11,11,11,11,11,11,11,11,11,11,11,11,11,11,
11,11,4,5,5,5,5,5,6,11,11,11,11,11,11,11,11,11,11,11,11,11,11,11,11,11,11,11,11,11,
11,11,13,14,14,14,14,14,15,11,11,11,11,11,11,11,11,11,11,11,11,11,11,11,11,11,11,11,11,11,
11,11,13,14,14,14,14,14,15,11,11,11,11,11,11,11,11,11,11,11,11,11,11,11,11,11,11,11,11,11,
11,11,13,14,14,14,14,14,15,11,11,11,11,11,11,11,11,11,11,11,11,11,11,11,11,11,11,11,11,11,
11,11,13,14,14,14,14,14,15,11,11,11,11,11,11,11,11,11,11,11,11,11,11,11,11,11,11,11,11,11,
11,11,22,23,14,14,14,23,24,11,11,11,11,11,11,11,11,11,11,11,11,11,11,11,11,11,11,11,11,11,
11,11,11,11,13,14,15,11,11,11,11,11,11,11,11,11,11,11,11,11,11,11,11,11,11,11,11,11,11,11,
11,11,11,11,13,14,15,11,11,11,11,11,11,11,11,11,11,11,11,11,11,11,11,11,11,11,11,11,11,11,
11,11,11,11,13,14,15,11,11,11,11,11,11,11,11,11,11,11,11,11,11,11,11,11,11,11,11,11,11,11,
11,11,11,11,13,14,15,11,11,11,11,11,11,11,11,11,11,11,11,11,11,11,11,11,11,11,11,11,11,11,
11,11,11,11,13,14,15,11,11,11,11,11,11,11,11,11,11,11,11,11,11,11,11,11,11,11,11,11,11,11,
11,11,11,11,13,14,15,11,11,11,11,11,11,11,11,11,11,11,11,11,11,11,11,11,11,11,11,11,11,11,
11,11,11,11,13,14,14,5,5,5,5,5,5,5,5,5,5,5,5,5,5,5,5,5,5,6,11,11,11,11,
11,11,11,11,22,23,23,23,23,23,23,23,23,23,23,23,23,23,23,23,23,23,23,14,14,15,11,11,11,11,
11,11,11,11,11,11,11,11,11,11,11,11,11,11,11,11,11,11,11,11,11,11,11,13,14,15,11,11,11,11,
11,11,11,11,11,11,11,11,11,11,11,11,11,11,11,11,11,11,11,11,11,11,11,13,14,15,11,11,11,11,
11,11,11,11,11,11,11,11,11,11,11,11,11,11,11,11,11,11,11,11,11,11,11,13,14,15,11,11,11,11,
11,11,11,11,11,11,11,11,11,11,11,11,11,11,11,11,11,11,11,11,11,11,11,13,14,15,11,11,11,11,
11,11,11,11,11,11,11,11,11,11,11,11,11,11,11,11,11,11,11,11,11,11,11,13,14,15,11,11,11,11,
11,11,11,11,11,11,11,11,11,11,11,11,11,11,11,11,11,11,11,11,11,4,5,14,14,14,5,6,11,11,
11,11,11,11,11,11,11,11,11,11,11,11,11,11,11,11,11,11,11,11,11,13,14,14,14,14,14,15,11,11,
11,11,11,11,11,11,11,11,11,11,11,11,11,11,11,11,11,11,11,11,11,13,14,14,14,14,14,15,11,11,
11,11,11,11,11,11,11,11,11,11,11,11,11,11,11,11,11,11,11,11,11,13,14,14,14,14,14,15,11,11,
11,11,11,11,11,11,11,11,11,11,11,11,11,11,11,11,11,11,11,11,11,13,14,14,14,14,14,15,11,11,
11,11,11,11,11,11,11,11,11,11,11,11,11,11,11,11,11,11,11,11,11,22,23,23,23,23,23,24,11,11,
11,11,11,11,11,11,11,11,11,11,11,11,11,11,11,11,11,11,11,11,11,11,11,11,11,11,11,11,11,11,
11,11,11,11,11,11,11,11,11,11,11,11,11,11,11,11,11,11,11,11,11,11,11,11,11,11,11,11,11,11,
11,11,11,11,11,11,11,11,11,11,11,11,11,11,11,11,11,11,11,11,11,11,11,11,11,11,11,11,11,11
</data>
 </layer>
 <layer id="2" name="Arboles" width="30" height="30">
  <properties>
   <property name="    collidable" type="bool" value="true"/>
  </properties>
  <data encoding="csv">
54,54,54,54,54,54,54,54,54,54,54,54,54,54,54,54,54,54,54,54,54,54,54,54,54,54,54,54,54,54,
54,0,0,0,0,0,0,0,0,0,0,0,31,0,0,0,0,0,0,0,54,54,0,0,0,0,0,0,0,54,
54,0,0,0,0,0,0,0,0,0,0,0,40,0,0,0,54,31,0,0,0,0,54,54,0,54,0,54,0,54,
54,0,0,0,0,0,0,0,0,0,0,0,0,0,31,0,0,40,0,0,0,0,0,0,0,0,0,0,0,54,
54,0,0,0,0,0,0,0,0,0,0,0,0,0,40,0,54,54,54,0,36,0,0,31,0,0,0,0,0,54,
54,0,0,0,0,0,0,0,0,0,0,0,0,0,0,0,0,0,0,36,0,54,54,40,0,0,0,0,0,54,
54,0,0,0,0,0,0,0,0,0,0,31,0,33,34,34,34,34,34,34,34,34,34,34,35,0,0,0,0,54,
54,0,0,0,0,0,0,0,0,0,0,40,33,34,43,43,43,43,43,43,43,43,43,43,35,0,0,0,0,54,
54,0,0,0,0,0,0,0,0,0,0,0,33,43,43,43,43,43,43,43,43,43,43,43,35,0,0,31,0,54,
54,0,0,0,0,0,0,0,0,0,0,0,42,43,43,43,43,43,43,43,43,43,43,43,35,0,0,40,0,54,
54,0,0,0,0,0,0,0,0,31,0,0,51,43,43,43,43,43,43,43,43,43,43,43,44,0,0,0,0,54,
54,0,0,0,0,0,0,0,0,40,0,0,51,52,52,52,52,52,52,52,52,52,52,52,53,0,0,0,0,54,
54,0,0,0,0,0,0,0,0,0,0,0,0,0,0,0,0,0,0,0,0,0,0,0,0,0,0,0,0,54,
54,0,0,0,0,0,0,0,0,0,0,0,0,0,0,0,0,0,0,0,0,0,0,0,0,0,0,0,0,54,
54,0,0,0,0,0,0,0,0,0,0,0,0,0,0,0,0,0,0,0,0,0,0,0,0,0,0,0,31,54,
54,0,0,0,0,0,0,0,0,0,0,0,0,0,0,0,0,0,0,0,0,0,0,0,0,0,0,31,40,54,
54,0,0,0,0,0,0,0,0,0,0,0,0,0,0,0,0,0,0,0,0,0,0,0,0,0,0,40,31,54,
54,0,0,0,0,0,31,0,33,34,34,34,34,34,35,0,0,0,0,0,0,0,0,0,0,0,0,0,40,54,
54,54,54,0,0,0,40,0,33,34,43,43,43,43,44,0,0,0,0,0,0,0,0,0,0,0,0,0,0,54,
54,54,54,54,54,0,0,0,42,43,43,40,40,52,53,0,0,0,0,0,0,0,0,0,0,0,0,0,0,54,
54,54,0,0,0,0,54,31,31,43,40,0,0,0,0,0,0,31,0,0,0,0,0,0,0,0,0,0,0,54,
54,54,0,54,54,54,0,40,40,34,31,31,0,31,0,0,0,40,0,0,0,0,0,0,0,0,0,45,0,54,
54,0,0,0,0,0,0,0,0,40,40,40,0,40,0,31,0,0,0,0,0,0,0,0,0,0,45,45,0,54,
54,0,0,0,0,0,0,0,0,0,0,0,0,0,0,40,0,0,0,0,0,0,0,0,0,0,0,0,0,54,
54,0,0,0,0,0,0,0,0,31,31,31,0,0,0,0,0,0,0,0,0,0,0,0,0,0,0,0,0,54,
54,54,54,0,0,0,0,0,0,40,40,40,0,0,0,0,0,0,0,0,0,0,0,0,0,0,0,0,0,54,
54,54,54,54,0,0,0,0,0,0,40,0,0,0,0,0,0,0,0,0,0,0,0,0,0,0,0,0,0,54,
54,54,54,54,54,0,0,0,0,0,0,0,0,0,0,0,0,0,0,0,0,0,0,0,0,0,0,0,0,54,
54,54,54,54,54,54,54,54,54,54,54,54,54,0,0,0,0,0,0,0,0,0,0,0,0,0,0,0,0,54,
54,54,54,54,54,54,54,54,54,54,54,54,54,54,54,54,54,54,54,54,54,54,54,54,54,54,54,54,54,54
</data>
 </layer>
 <objectgroup id="3" name="Walls">
  <object id="2" x="129.333" y="129.333" width="13.3333" height="380.667"/>
 </objectgroup>
</map>
